images/playkey.svg

<svg height="250" viewBox="0 0 250 250" width="250" xmlns="http://www.w3.org/2000/svg"><g fill-rule="evenodd"><path d="m29.472656 144.308594 93.292969 95.324218v-38.210937l-93.292969-94.714844zm0 0" fill="#f8b233"/><path d="m122.765625 11.992188-93.292969 94.714843 93.292969 94.714844 93.089844-94.714844zm0 0" fill="#ffd53d"/><path d="m122.765625 201.421875v38.210937l92.886719-95.527343.203125-37.398438zm0 0" fill="#d7811c"/><g fill="#1d1d1b"><path d="m50.203125 105.894531 72.5625-73.78125 72.558594 73.78125-72.558594 73.578125zm72.5625-86.992187-85.570313 86.992187 85.570313 86.992188 85.566406-86.992188zm0 0"/><path d="m124.1875 58.128906v93.902344l46.339844-46.949219zm8.941406 22.359375 24.390625 24.59375-24.390625 24.59375zm0 0"/></g></g></svg>

<!-- Generator: Adobe Illustrator 22.0.1, SVG Export Plug-In . SVG Version: 6.00 Build 0)  -->
<svg xmlns="http://www.w3.org/2000/svg" xmlns:xlink="http://www.w3.org/1999/xlink" width="250px" height="250px" viewBox="0 0 250 250" version="1.1">
<g id="surface1">
<path style=" stroke:none;fill-rule:evenodd;fill:rgb(97.254902%,69.803923%,20%);fill-opacity:1;" d="M 29.472656 144.308594 L 122.765625 239.632812 L 122.765625 201.421875 L 29.472656 106.707031 Z M 29.472656 144.308594 "/>
<path style=" stroke:none;fill-rule:evenodd;fill:rgb(100%,83.529413%,23.921569%);fill-opacity:1;" d="M 122.765625 11.992188 L 29.472656 106.707031 L 122.765625 201.421875 L 215.855469 106.707031 Z M 122.765625 11.992188 "/>
<path style=" stroke:none;fill-rule:evenodd;fill:rgb(84.313726%,50.588238%,10.980392%);fill-opacity:1;" d="M 122.765625 201.421875 L 122.765625 239.632812 L 215.652344 144.105469 L 215.855469 106.707031 Z M 122.765625 201.421875 "/>
<path style=" stroke:none;fill-rule:evenodd;fill:rgb(11.372549%,11.372549%,10.588235%);fill-opacity:1;" d="M 50.203125 105.894531 L 122.765625 32.113281 L 195.324219 105.894531 L 122.765625 179.472656 Z M 122.765625 18.902344 L 37.195312 105.894531 L 122.765625 192.886719 L 208.332031 105.894531 Z M 122.765625 18.902344 "/>
<path style=" stroke:none;fill-rule:evenodd;fill:rgb(11.372549%,11.372549%,10.588235%);fill-opacity:1;" d="M 124.1875 58.128906 L 124.1875 152.03125 L 170.527344 105.082031 Z M 133.128906 80.488281 L 157.519531 105.082031 L 133.128906 129.675781 Z M 133.128906 80.488281 "/>
</g>
</svg>
